packages/foundations/assets/icons/functional/images/navigation/magnifying_glass_32.svg

<svg width="32" height="32" viewBox="0 0 32 32" fill="none" xmlns="http://www.w3.org/2000/svg">
<g clip-path="url(#clip0_187_94)">
<path fill-rule="evenodd" clip-rule="evenodd" d="M13 3C18.5312 3 23 7.46875 23 13C23 15.4062 22.1562 17.5938 20.75 19.3125L28.7188 27.2812C28.9062 27.4688 29 27.75 29 28C29 28.5938 28.5625 29 28 29C27.75 29 27.5 28.9375 27.2812 28.7188L19.3125 20.75C17.5938 22.1562 15.4062 23 13 23C7.46875 23 3 18.5312 3 13C3 7.46875 7.46875 3 13 3ZM13 5C8.59375 5 5 8.59375 5 13C5 17.4062 8.59375 21 13 21C17.4062 21 21 17.4062 21 13C21 8.59375 17.4062 5 13 5Z" fill="#1A1C1F"/>
</g>
<defs>
<clipPath id="clip0_187_94">
<rect width="32" height="32" fill="white"/>
</clipPath>
</defs>
</svg>

<svg xmlns="http://www.w3.org/2000/svg" width="32" height="32" fill="none"><g clip-path="url(#a)"><path fill="#1A1C1F" fill-rule="evenodd" d="M13 3a9.99 9.99 0 0 1 10 10 9.9 9.9 0 0 1-2.25 6.313l7.969 7.968c.187.188.281.469.281.719 0 .594-.437 1-1 1-.25 0-.5-.062-.719-.281l-7.968-7.969A9.9 9.9 0 0 1 13 23 9.99 9.99 0 0 1 3 13 9.99 9.99 0 0 1 13 3m0 2c-4.406 0-8 3.594-8 8s3.594 8 8 8 8-3.594 8-8-3.594-8-8-8" clip-rule="evenodd"/></g><defs><clipPath id="a"><path fill="#fff" d="M0 0h32v32H0z"/></clipPath></defs></svg>
